theme/dist/icons/arrow-left-white.svg

<svg fill="none" height="24" viewBox="0 0 24 24" width="24" xmlns="http://www.w3.org/2000/svg"><path d="m16.9678 5.11581v-1.81172c0-.15703-.1805-.24375-.3023-.14766l-10.56566 8.25237c-.08977.0698-.16241.1592-.21238.2613-.04996.1022-.07594.2144-.07594.3281 0 .1138.02598.226.07594.3281.04997.1022.12261.1916.21238.2614l10.56566 8.2523c.1242.0961.3023.0094.3023-.1476v-1.8117c0-.1149-.0539-.225-.143-.2954l-8.43746-6.5859 8.43746-6.58828c.0891-.07031.143-.18047.143-.29531z" fill="#fff"/></svg>

<svg width="24" height="24" viewBox="0 0 24 24" fill="none" xmlns="http://www.w3.org/2000/svg"><path d="M16.9678 5.11581V3.30409C16.9678 3.14706 16.7873 3.06034 16.6655 3.15643L6.09984 11.4088C6.01007 11.4786 5.93743 11.568 5.88746 11.6701 5.8375 11.7723 5.81152 11.8845 5.81152 11.9982 5.81152 12.112 5.8375 12.2242 5.88746 12.3263 5.93743 12.4285 6.01007 12.5179 6.09984 12.5877L16.6655 20.84C16.7897 20.9361 16.9678 20.8494 16.9678 20.6924V18.8807C16.9678 18.7658 16.9139 18.6557 16.8248 18.5853L8.38734 11.9994 16.8248 5.41112C16.9139 5.34081 16.9678 5.23065 16.9678 5.11581v0z" fill="#fff"/></svg>
